!!!COM: Palestrina, Giovanni Perluigi da
!!!OPR: Sine nomine (1567)
!!!OTL: Agnus I
**kern	**kern	**kern	**kern
*Ibass	*Itenor	*Icalto	*Icant
!Bassus	!Tenor	!Altus	!Cantus
*clefF4	*clefGv2	*clefG2	*clefG2
*k[]	*k[]	*k[]	*k[]
*E:phr	*E:phr	*E:phr	*E:phr
*M4/2	*M4/2	*M4/2	*M4/2
=1	=1	=1	=1
0E	0r	0r	0r
=2	=2	=2	=2
1G	0r	0r	0r
2.A	.	.	.
4G	.	.	.
=3	=3	=3	=3
4A	0r	0r	0e
4B	.	.	.
1c	.	.	.
4B	.	.	.
4A	.	.	.
=4	=4	=4	=4
1B	0r	1r	1g
2A	.	[1A	2.a
2D	.	.	.
.	.	.	4g
=5	=5	=5	=5
2.F	0r	1A]	4a
.	.	.	4b
.	.	.	1cc
4G	.	.	.
1A	.	1c	.
.	.	.	4b
.	.	.	4a
=6	=6	=6	=6
1G	0r	2.d	1b
.	.	4c	.
[1D	.	4d	2a
.	.	4e	.
.	.	[2f	4d
.	.	.	4e
=7	=7	=7	=7
1D]	0A	2f]	4f
.	.	.	4g
.	.	4e	4a
.	.	4d	4b
1r	.	2e	2cc
.	.	[2f	2a
=8	=8	=8	=8
0r	1c	2f]	1g
.	.	2e	.
.	2.d	2.f	2f
.	.	.	2d
.	4c	4e	.
=9	=9	=9	=9
1r	4d	4d	0a
.	4e	4c	.
.	1f	1d	.
1A	.	.	.
.	4e	4c	.
.	4d	4B	.
=10	=10	=10	=10
1A	2e	2c	1.a
.	1c	2e	.
2F	.	1d	.
2G	2B	.	4g
.	.	.	4f
=11	=11	=11	=11
2A	2c	1r	0e
2B	2G	.	.
2.c	2.A	2r	.
.	.	2e	.
4B	4B	.	.
=12	=12	=12	=12
4A	1c	1e	2r
4G	.	.	.
2.A	.	.	2a
.	1A	2c	1a
4G	.	.	.
[2F	.	2c	.
=13	=13	=13	=13
2F]	0r	2d	2f
2E	.	2e	2g
1D	.	1f	2a
.	.	.	2b
=14	=14	=14	=14
0AA	2r	2.e	2.cc
.	2A	.	.
.	.	4d	4b
.	1A	4c	4a
.	.	4B	4g
.	.	[2c	[2a
=15	=15	=15	=15
0r	2F	4c]	2a]
.	.	4d	.
.	2G	1e	2g
.	2A	.	1f
.	2B	2d	.
=16	=16	=16	=16
2r	2.c	2.e	1e
2A	.	.	.
.	4d	4d	.
1A	2e	4c	2r
.	.	4B	.
.	2c	2A	2a
=17	=17	=17	=17
2F	1d	2a	2a
2G	.	2g	2b
2A	1r	1f	2cc
2B	.	.	2dd
=18	=18	=18	=18
2.c	2r	[0e	1g
.	2c	.	.
4B	.	.	.
4A	1c	.	[1cc
4G	.	.	.
[2A	.	.	.
=19	=19	=19	=19
2A]	2A	1e]	2cc]
2G	2B	.	2b
1F	2c	1r	1a
.	2d	.	.
=20	=20	=20	=20
0C	2.e	2r	[0g
.	.	2e	.
.	4d	.	.
.	4c	1e	.
.	4B	.	.
.	[2c	.	.
=21	=21	=21	=21
0r	2c]	2c	1g]
.	2B	2d	.
.	1A	2e	1cc
.	.	2f#	.
=22	=22	=22	=22
2r	1G	2.g	2.b
2E	.	.	.
.	.	4f	4a
1E	1r	4e	4g
.	.	4d	4f#
.	.	[2e	[2g
=23	=23	=23	=23
2C	0r	2e]	2g]
2D	.	2.d	2f#
2E	.	.	2g
.	.	4c	.
2F	.	[2c	4f
.	.	.	4e
=24	=24	=24	=24
1G	1r	2c]	1d
.	.	2B	.
1C	2r	2c	2e
.	2c	2e	[2g
=25	=25	=25	=25
0r	2B	2d	2g]
.	2.c	2.e	2g
.	.	.	1g
.	4B	4d	.
.	2G	2B	.
=26	=26	=26	=26
2r	1A	1c	[0e
2A	.	.	.
2G#	2E	2B	.
[2A	4A	[2c	.
.	4B	.	.
=27	=27	=27	=27
4A]	4c	4c]	1e]
4G	4d	4B	.
2E	1e	2G	.
1F	.	2.A	2r
.	2d	.	2a
.	.	4B	.
=28	=28	=28	=28
2E	2e	1c	2g#
2.F	2.A	.	2.a
.	.	1c	.
4E	4B	.	4g
2C	[2c	.	2e
=29	=29	=29	=29
1D	2c]	1r	1f
.	2B	.	.
2C	1c	2r	2e
2C	.	2e	2g
=30	=30	=30	=30
2D	0r	2d	2f#
4C	.	2.e	2.g
4D	.	.	.
4E	.	.	.
4F	.	4d	4f
2G	.	2B	2d
=31	=31	=31	=31
2C	2r	1c	2.e
2c	2e	.	.
.	.	.	4f
2B	2d	2G	1g
[2c	[2e	[2g	.
=32	=32	=32	=32
4c]	4e]	2g]	1r
4B	4d	.	.
2G	2B	2g	.
1A	2c	1e	1cc
.	2A	.	.
=33	=33	=33	=33
2G#	2B	2.e	2b
2.A	2A	.	2.cc
.	.	4d	.
.	2r	2c	.
4G	.	.	4b
2E	2e	2B	2g
=34	=34	=34	=34
2F	2d	2A	2a
2E	2.e	1B	2g
1G	.	.	1b
.	4d	.	.
.	2B	2G	.
=35	=35	=35	=35
2F	2c	2A	2a
2.G	2B	2G	2.b
.	1d	2r	.
4F	.	.	4a
2D	.	2A	4a
.	.	.	8g
.	.	.	8f#
=36	=36	=36	=36
2E	2c	2G	2g
2D	2.d	2.A	2f
1F	.	.	1a
.	4c	4B	.
.	2A	4c	.
.	.	4d	.
=37	=37	=37	=37
2E	2B	2e	2g#
2.F	2A	2.c	2.a
.	1c	.	.
4E	.	4d	4g
2C	.	2e	2e
=38	=38	=38	=38
2D	2B	2d	2f
2C	2.c	2.e	2e
1E	.	.	1g
.	4B	4d	.
.	2G	4B	.
.	.	4c	.
=39	=39	=39	=39
2D	2A	2d	2f#
1E	2G	2B	2.g
.	4E	1c	.
.	4F	.	4f
2C	4G	.	[2e
.	4E	.	.
=40	=40	=40	=40
1D	0F	0A	2e]
.	.	.	4d
.	.	.	4c
2r	.	.	1d
[2A	.	.	.
=41	=41	=41	=41
2A]	1E	2c	[0e
2G#	.	2B	.
1A	2r	2.c	.
.	2c	.	.
.	.	4B	.
=42	=42	=42	=42
2E	2B	2G	0e]
4AA	2.c	2A	.
4BB	.	.	.
4C	.	2E	.
4D	4B	.	.
2E	2G	[2e	.
=43	=43	=43	=43
0AA	2A	4e]	[0e
.	.	4d	.
.	2E	4c	.
.	.	4B	.
.	1A	1c	.
=44	=44	=44	=44
[0E	[0G#	[0B	1e_
.	.	.	1e_
=45	=45	=45	=45
0E]	0G#]	0B]	0e]
==	==	==	==
*-	*-	*-	*-
!!!CDT: 1525/^1526/-1594/2/2
!!!OCY: Italia
!!!AGN: Mass (Free)
!!!AST: renaissance, vocal
!!!ASW: Motet 1539 (Jacquet)
!!!PWK: Masses, Book 2
!!!RNB: Cadence finals: A,C
!!!YOR: Le Opere Complete, v. 4, p. 53
!!!YOO: Rome, Italy: Fratelli Scalera
!!!END: 1992//
!!!EED: John Miller
!!!YEC: Copyright 2000, John Miller
!!!YEN: United States of America
!!!YEM: Rights to all derivative electronic formats reserved.
!!!YEM: Refer to licensing agreement for further details.
!!!YEM: This file must be accompanied by the licensing agreement.
!!!YEM: A copy of the licensing agreement may be found at http://www.music-cog.ohio-state.edu/HumdrumDatabases/Palestrina/license.txt
!!!EMD: converted to Humdrum by Bret Aarden
